icon-themes/colibre_svg/cmd/32/mailmergecreatedocuments.svg

<svg viewBox="0 0 32 32" xmlns="http://www.w3.org/2000/svg"><path d="m4 2c-.554 0-1 .446-1 1v22c0 .554.4567584.891352 1 1h3c.7643635.878143.9252051.0098 1 0v-14c0-.554.446-1 1-1h12v-8c0-.554-.446-1-1-1zm5 25c-6 3.333333-3 1.666667 0 0z" fill="#808080"/><path d="m4 3v22h3l1 1v-14c0-.554.446-1 1-1h11v-8z" fill="#fff"/><path d="m7 6c-.554 0-1 .446-1 1v22c0 .554.446 1 1 1h7.96875l1.236328-5.019531.197266-.197266c2.539313-2.536238 5.065722-5.049645 7.597656-7.568359v-10.214844c0-.554-.446-1-1-1zm17 20.666016c-.948635.944208-1.901504 1.879146-2.839844 2.849609l-.193359.199219-1.072266.285156h3.105469c.554 0 1-.446 1-1z" fill="#808080"/><path d="m7 7v22h8.214844l.990234-4.019531.197266-.197266c2.205098-2.202428 4.400164-4.385388 6.597656-6.572265v-11.210938zm16 20.669922c-.441242.444218-.887189.879813-1.326172 1.330078h1.326172z" fill="#fff"/><g fill="#eac282" transform="matrix(1.1667513 0 0 1.1666667 3.165736 3.166667)"><path d="m17.480469 13.611328-5.529297 5.523438-.951172 3.865234 3.806641-1.011719 5.509765-5.544922z"/><path d="m20.419922 11c-.189562 0-.378184.07172-.523438.216797l-1.673828 1.669922 2.847656 2.849609 1.710938-1.638672c.290506-.290127.290506-.756747 0-1.046875l-1.835938-1.833984c-.145254-.145064-.335828-.216797-.52539-.216797z"/></g></svg>

<svg viewBox="0 0 32 32" xmlns="http://www.w3.org/2000/svg">
 <path d="m4 2c-.554 0-1 .446-1 1v22c0 .554.4567584.891352 1 1h3c .7643635.878143.9252051.0098 1 0v-14c0-.554.446-1 1-1h12v-8c0-.554-.446-1-1-1zm5 25c-6 3.333333-3 1.666667 0 0z" fill="#808080" />
 <path d="m4 3v22h3l1 1v-14c0-.554.446-1 1-1h11v-8z" fill="#fff" />
 <path d="M 7 6 C 6.446 6 6 6.446 6 7 L 6 29 C 6 29.554 6.446 30 7 30 L 14.96875 30 L 16.205078 24.980469 L 16.402344 24.783203 C 18.941657 22.246965 21.468066 19.733558 24 17.214844 L 24 7 C 24 6.446 23.554 6 23 6 L 7 6 z M 24 26.666016 C 23.051365 27.610224 22.098496 28.545162 21.160156 29.515625 L 20.966797 29.714844 L 19.894531 30 L 23 30 C 23.554 30 24 29.554 24 29 L 24 26.666016 z " fill="#808080"/>
 <path d="M 7 7 L 7 29 L 15.214844 29 L 16.205078 24.980469 L 16.402344 24.783203 C 18.607442 22.580775 20.802508 20.397815 23 18.210938 L 23 7 L 7 7 z M 23 27.669922 C 22.558758 28.11414 22.112811 28.549735 21.673828 29 L 23 29 L 23 27.669922 z " fill="#ffffff"/>
 <g transform="matrix(1.1667513,0,0,1.1666667,3.1657357,3.1666673)" fill="#eac282">
  <path d="M 17.480469,13.611328 11.951172,19.134766 11,23 l 3.806641,-1.011719 5.509765,-5.544922 z" />
  <path d="m 20.419922,11 c -0.189562,0 -0.378184,0.07172 -0.523438,0.216797 l -1.673828,1.669922 2.847656,2.849609 1.710938,-1.638672 c 0.290506,-0.290127 0.290506,-0.756747 0,-1.046875 L 20.945312,11.216797 C 20.800058,11.071733 20.609484,11 20.419922,11 Z" />
 </g>
</svg>
